public/avatar/body/120.svg

<svg xmlns:xlink="http://www.w3.org/1999/xlink" height="82" width="84.85" xmlns="http://www.w3.org/2000/svg"><g transform="translate(37.4 42.25)"><use height="38" transform="translate(-11.95 -17.45)" width="32.05" xlink:href="#a"/><use height="38.95" transform="translate(-12.45 -17.95)" width="33.05" xlink:href="#b"/><use height="23.65" transform="translate(-17.65 -.9)" width="43.45" xlink:href="#c"/></g><defs><path d="M27.35 7.4q2.15 4.15 3.55 8.75 1.45 4.7 1.15 9.5-.35 4.95-4.2 8.1-3.8 3.2-8.75 4.05l-2.6.2q-3.6 0-7.05-1.15-4.65-1.6-7.1-5.5Q-.2 27.4.05 23q.2-4.4 2-9.3Q3.85 8.75 7 5.05 10.1 1.3 14.7.1l1.8-.1q1.9.05 3.7.8 4.75 2.05 7.15 6.6" fill="#fff" fill-rule="evenodd" transform="translate(-.05)" id="d"/><path d="M27.35 7.4Q24.95 2.85 20.2.8 17.55-.3 14.7.1 10.1 1.3 7 5.05q-3.15 3.7-4.95 8.65-1.8 4.9-2 9.3-.25 4.4 2.3 8.35 2.45 3.9 7.1 5.5 4.65 1.55 9.65.95 4.95-.85 8.75-4.05 3.85-3.15 4.2-8.1.3-4.8-1.15-9.5-1.4-4.6-3.55-8.75Z" fill="none" stroke="#010102" stroke-linecap="round" stroke-linejoin="round" transform="translate(.45 .5)" id="e"/><use height="38" width="32.05" xlink:href="#d" id="a"/><use height="38.95" width="33.05" xlink:href="#e" id="b"/><g id="c" fill-rule="evenodd"><path d="m18.9-.55.6-.35q4.75-.1 6.3 3.45v.35l-1.2 1q-1.6.75-3.4 1.15 0 4.8-2.8 8.8l.8-.15q3.3 6-3.6 4.55l-.75.05q-2.65 7.45-9.35 2.45l-7.3 1.1Q.55 21.4 2.6 20l3.5.05q5.85 4.6 8.25-2.5 2.75-.4 5.45-.05.8-1.95-1.3-3.2l-.45.1-.15-.1.35-.25-.45.15-.2-.15q1.4-1.6 2.05-3.5l.3-1q1.3-2.2.4-4.8h.1l-.5-.65q2.5-.15 4.5-1.15l.45-.25.1-.5-.15-.4Q22.2.3 19.35-.1l-.3.35-.15-.8m-22.3 22.5h-1.15q-1.45 0-1.7-1.7-.15-.95-.45-1.8l-.4-.2q-6.9 1.35-4.3-4.6l.55-.05Q-13 9.5-12.7 4.75q-2.55.05-4.1-1.45l-.85-1.2q2.2-3.15 6.55-3l.45.2-.2.95-.35-.35q-2.8.2-5.05 1.75l-.65.55q0 .45.4.8l1 .3 3.65.8-.7.65.6.05v3.1l.35 1.85 2.05 4.6.1.15-1.15-.2-.8 2.75q2.1 1.4 5.05.85l2.95 4.05" transform="translate(17.65 .9)"/><path d="m-10.65-.7 2.8 2.35Q-3.35 5.25 2 7.2l2.15 4.95 1.8-4.9 4.1-1.9q4.8-2.3 8.85-5.9l.15.8Q13.6 5.55 6.35 7.9l-.2.6-.65 1.65.15.2-.05.1-.35.65-.45.75-.05 4.1-.85.2L2.95 11l-.25-.45-.15-.3L1.8 7.9Q-4.7 5.1-10.4.95l-.15-.2-.3-.5.2-.95" fill="#07360f" transform="translate(17.65 .9)"/><path d="m-1.8 21.85-.5.05-1.1.05-2.95-4.05q-2.95.55-5.05-.85l.8-2.75 1.15.2 2.95 1.35Q.05 19.2 7.45 18.2q1.75 1.25 2.3 3.35l1.05-.1.55-.5q1.85-1.8 1.9-4.3l2.15-.95 3.6.9.25-.1.1-.05-1.3-2.05.45-.1q2.1 1.25 1.3 3.2-2.7-.35-5.45.05-2.4 7.1-8.25 2.5L2.6 20q-2.05 1.4-4.4 1.85M25 2.2l-.1.5-.45.25q-2 1-4.5 1.15l-1.35.2q1.85-.5 3.5-1.8l.55-.65L21.25.7 25 2.2m-5.05 7.35-.3 1q-.65 1.9-2.05 3.5.6-1.1 0-2.6l-.45-.9q1.3.1 2.35-.7l.45-.3m-9.1 4.6-.5.25-4.25-3.65-.6-.6.65-1.65 1.15 1.7q1.5 2.2 3.55 3.95M5.7 10.4l-.1.05.05-.1.05.05m-.45.7 2.15 2.55.2 2.7-3.05.2q-7.15.2-14.1-2.2l-2.05-4.6.7.45.6-.5 1.75-1.55 3.7-.75.75-.45 2.45 5.85.9.5-.85.85-.65.25-.45-.7q-1.45-2.95-1.35-6.4l-1.15.6q-2.6 1.7-5.7 2.3l1.1.3q2.65-.05 4.9-1.8-.2 2.95 1.15 5.45.35.65.85.45 4 .5 5.85-3.6l.95 5.15.85-.2.05-4.1.45-.75m8.4-3.1-1.25-.85 3.45 1.25L18 9.65l-.65-.15-3.7-1.5M2.7 10.55l-.3-.15.15-.15.15.3M-10.55.75q-2.25.35-4.2 1.05l-.15.25q1.4 1.65 4.45 2.25l-1.4-.2-3.65-.8-1.4-1.1 5.7-2.3.35.35.3.5" fill="#298b2d" transform="translate(17.65 .9)"/><path d="m17.6 14.05.2.15-1.95.5q-4.1 1.35-8.25 1.65l-.2-2.7q4.15 3.85 5.5-1.85.35-1.55.1-3.1 1.85 1.6 4.15 1.85l.45.9q.6 1.5 0 2.6m.3.25.15.1 1.3 2.05-.1.05-.25.1-3.6-.9 2.5-1.4m-4.65 2.35q-.05 2.5-1.9 4.3l-.55.5-1.05.1q-.55-2.1-2.3-3.35l5.8-1.55" fill="#18601e" transform="translate(17.65 .9)"/><path d="m19.95 4.1.5.65h-.1q.9 2.6-.4 4.8l-.45.3q-1.05.8-2.35.7-2.3-.25-4.15-1.85.25 1.55-.1 3.1-1.35 5.7-5.5 1.85L5.25 11.1l.35-.65.1-.05.4.35 4.25 3.65.5-.25.45-1.25q1-2.65 1.05-5.6l1.3.7 3.7 1.5.65.15h.6l.2-.4q.8-2.15-.2-4.95l1.35-.2M2.7 10.55l.25.45Q1.1 15.1-2.9 14.6q-.5.2-.85-.45-1.35-2.5-1.15-5.45-2.25 1.75-4.9 1.8l-1.1-.3q3.1-.6 5.7-2.3l1.15-.6q-.1 3.45 1.35 6.4l.45.7.65-.25 2.4-2.1 1.6-1.65.3.15M-10.45 4.3q-.7 2.35-.1 4.8l.25.6-.6.5-.7-.45-.35-1.85V4.8l-.6-.05.7-.65 1.4.2" fill="#021e04" transform="translate(17.65 .9)"/><path d="m19.05.25.3-.35q2.85.4 5.5 1.9l.15.4L21.25.7l1.4 1.15-.55.65q-1.65 1.3-3.5 1.8 1 2.8.2 4.95l-.2.4H18L15.85 8.4 12.4 7.15l1.25.85-1.3-.7q-.05 2.95-1.05 5.6l-.45 1.25Q8.8 12.4 7.3 10.2L6.15 8.5l.2-.6Q13.6 5.55 19.05.25M6.1 10.75l-.4-.35-.05-.05-.15-.2.6.6m-3.7-.35L.8 12.05l-2.4 2.1.85-.85-.9-.5-2.45-5.85-.75.45-3.7.75-1.75 1.55-.25-.6q-.6-2.45.1-4.8-3.05-.6-4.45-2.25l.15-.25q1.95-.7 4.2-1.05l.15.2Q-4.7 5.1 1.8 7.9l.75 2.35-.15.15m-17.9-7.1-1-.3q-.4-.35-.4-.8l.65-.55Q-14 .1-11.2-.1l-5.7 2.3 1.4 1.1" fill="#115019" transform="translate(17.65 .9)"/><path d="m17.8 14.2.45-.15-.35.25-2.5 1.4-2.15.95-5.8 1.55q-7.4 1-13.95-2.35l-2.95-1.35-.1-.15q6.95 2.4 14.1 2.2l3.05-.2q4.15-.3 8.25-1.65l1.95-.5" fill="#0d4917" transform="translate(17.65 .9)"/></g></defs></svg>

<?xml version="1.0" encoding="UTF-8" standalone="no"?>
<svg xmlns:xlink="http://www.w3.org/1999/xlink" height="82.0px" width="84.85px" xmlns="http://www.w3.org/2000/svg">
  <g transform="matrix(1.0, 0.0, 0.0, 1.0, 37.4, 42.25)">
    <use height="38.0" transform="matrix(1.0, 0.0, 0.0, 1.0, -11.95, -17.45)" width="32.05" xlink:href="#sprite0"/>
    <use height="38.95" transform="matrix(1.0, 0.0, 0.0, 1.0, -12.45, -17.95)" width="33.05" xlink:href="#sprite1"/>
    <use height="23.65" transform="matrix(1.0, 0.0, 0.0, 1.0, -17.65, -0.9)" width="43.45" xlink:href="#shape2"/>
  </g>
  <defs>
    <g id="sprite0" transform="matrix(1.0, 0.0, 0.0, 1.0, -0.05, 0.0)">
      <use height="38.0" transform="matrix(1.0, 0.0, 0.0, 1.0, 0.05, 0.0)" width="32.05" xlink:href="#shape0"/>
    </g>
    <g id="shape0" transform="matrix(1.0, 0.0, 0.0, 1.0, -0.05, 0.0)">
      <path d="M27.35 7.4 Q29.5 11.55 30.9 16.15 32.35 20.85 32.05 25.65 31.7 30.6 27.85 33.75 24.05 36.95 19.1 37.8 L16.5 38.0 Q12.9 38.0 9.45 36.85 4.8 35.25 2.35 31.35 -0.2 27.4 0.05 23.0 0.25 18.6 2.05 13.7 3.85 8.75 7.0 5.05 10.1 1.3 14.7 0.1 L16.5 0.0 Q18.4 0.05 20.2 0.8 24.95 2.85 27.35 7.4" fill="#ffffff" fill-rule="evenodd" stroke="none"/>
    </g>
    <g id="sprite1" transform="matrix(1.0, 0.0, 0.0, 1.0, 0.45, 0.5)">
      <use height="38.95" transform="matrix(1.0, 0.0, 0.0, 1.0, -0.45, -0.5)" width="33.05" xlink:href="#shape1"/>
    </g>
    <g id="shape1" transform="matrix(1.0, 0.0, 0.0, 1.0, 0.45, 0.5)">
      <path d="M27.35 7.4 Q24.95 2.85 20.2 0.8 17.55 -0.3 14.7 0.1 10.1 1.3 7.0 5.05 3.85 8.75 2.05 13.7 0.25 18.6 0.05 23.0 -0.2 27.4 2.35 31.35 4.8 35.25 9.45 36.85 14.1 38.4 19.1 37.8 24.05 36.95 27.85 33.75 31.7 30.6 32.05 25.65 32.35 20.85 30.9 16.15 29.5 11.55 27.35 7.4 Z" fill="none" stroke="#010102" stroke-linecap="round" stroke-linejoin="round" stroke-width="1.0"/>
    </g>
    <g id="shape2" transform="matrix(1.0, 0.0, 0.0, 1.0, 17.65, 0.9)">
      <path d="M18.9 -0.55 L19.5 -0.9 Q24.25 -1.0 25.8 2.55 L25.8 2.9 24.6 3.9 Q23.0 4.65 21.2 5.05 21.2 9.85 18.4 13.85 L19.2 13.7 Q22.5 19.7 15.6 18.25 L14.85 18.3 Q12.2 25.75 5.5 20.75 L-1.8 21.85 Q0.55 21.4 2.6 20.0 L6.1 20.05 Q11.95 24.65 14.35 17.55 17.1 17.15 19.8 17.5 20.6 15.55 18.5 14.3 L18.05 14.4 17.9 14.3 18.25 14.05 17.8 14.2 17.6 14.05 Q19.0 12.45 19.65 10.55 L19.95 9.55 Q21.25 7.35 20.35 4.75 L20.45 4.75 19.95 4.1 Q22.45 3.95 24.45 2.95 L24.9 2.7 25.0 2.2 24.85 1.8 Q22.2 0.3 19.35 -0.1 L19.05 0.25 18.9 -0.55 M-3.4 21.95 L-4.55 21.95 Q-6.0 21.95 -6.25 20.25 -6.4 19.3 -6.7 18.45 L-7.1 18.25 Q-14.0 19.6 -11.4 13.65 L-10.85 13.6 Q-13.0 9.5 -12.7 4.75 -15.25 4.8 -16.8 3.3 L-17.65 2.1 Q-15.45 -1.05 -11.1 -0.9 L-10.65 -0.7 -10.85 0.25 -11.2 -0.1 Q-14.0 0.1 -16.25 1.65 L-16.9 2.2 Q-16.9 2.65 -16.5 3.0 L-15.5 3.3 -11.85 4.1 -12.55 4.75 -11.95 4.8 -11.95 7.9 -11.6 9.75 -9.55 14.35 -9.45 14.5 -10.6 14.3 -11.4 17.05 Q-9.3 18.45 -6.35 17.9 L-3.4 21.95" fill="#000000" fill-rule="evenodd" stroke="none"/>
      <path d="M-10.65 -0.7 L-7.85 1.65 Q-3.35 5.25 2.0 7.2 L4.15 12.15 5.95 7.25 10.05 5.35 Q14.85 3.05 18.9 -0.55 L19.05 0.25 Q13.6 5.55 6.35 7.9 L6.15 8.5 5.5 10.15 5.65 10.35 5.6 10.45 5.25 11.1 4.8 11.85 4.75 15.95 3.9 16.15 2.95 11.0 2.7 10.55 2.55 10.25 1.8 7.9 Q-4.7 5.1 -10.4 0.95 L-10.55 0.75 -10.85 0.25 -10.65 -0.7" fill="#07360f" fill-rule="evenodd" stroke="none"/>
      <path d="M-1.8 21.85 L-2.3 21.9 -3.4 21.95 -6.35 17.9 Q-9.3 18.45 -11.4 17.05 L-10.6 14.3 -9.45 14.5 -6.5 15.85 Q0.05 19.2 7.45 18.2 9.2 19.45 9.75 21.55 L10.8 21.45 11.35 20.95 Q13.2 19.15 13.25 16.65 L15.4 15.7 19.0 16.6 19.25 16.5 19.35 16.45 18.05 14.4 18.5 14.3 Q20.6 15.55 19.8 17.5 17.1 17.15 14.35 17.55 11.95 24.65 6.1 20.05 L2.6 20.0 Q0.55 21.4 -1.8 21.85 M25.0 2.2 L24.9 2.7 24.45 2.95 Q22.45 3.95 19.95 4.1 L18.6 4.3 Q20.45 3.8 22.1 2.5 L22.65 1.85 21.25 0.7 25.0 2.2 M19.95 9.55 L19.65 10.55 Q19.0 12.45 17.6 14.05 18.2 12.95 17.6 11.45 L17.15 10.55 Q18.45 10.65 19.5 9.85 L19.95 9.55 M10.85 14.15 L10.35 14.4 6.1 10.75 5.5 10.15 6.15 8.5 7.3 10.2 Q8.8 12.4 10.85 14.15 M5.7 10.4 L5.6 10.45 5.65 10.35 5.7 10.4 M5.25 11.1 L7.4 13.65 7.6 16.35 4.55 16.55 Q-2.6 16.75 -9.55 14.35 L-11.6 9.75 -10.9 10.2 -10.3 9.7 -8.55 8.15 -4.85 7.4 -4.1 6.95 -1.65 12.8 -0.75 13.3 -1.6 14.15 -2.25 14.4 -2.7 13.7 Q-4.15 10.75 -4.05 7.3 L-5.2 7.9 Q-7.8 9.6 -10.9 10.2 L-9.8 10.5 Q-7.15 10.45 -4.9 8.7 -5.1 11.65 -3.75 14.15 -3.4 14.8 -2.9 14.6 1.1 15.1 2.95 11.0 L3.9 16.15 4.75 15.95 4.8 11.85 5.25 11.1 M13.65 8.0 L12.4 7.15 15.85 8.4 18.0 9.65 17.35 9.5 13.65 8.0 M2.7 10.55 L2.4 10.4 2.55 10.25 2.7 10.55 M-10.55 0.75 Q-12.8 1.1 -14.75 1.8 L-14.9 2.05 Q-13.5 3.7 -10.45 4.3 L-11.85 4.1 -15.5 3.3 -16.9 2.2 -11.2 -0.1 -10.85 0.25 -10.55 0.75" fill="#298b2d" fill-rule="evenodd" stroke="none"/>
      <path d="M17.6 14.05 L17.8 14.2 15.85 14.7 Q11.75 16.05 7.6 16.35 L7.4 13.65 Q11.55 17.5 12.9 11.8 13.25 10.25 13.0 8.7 14.85 10.3 17.15 10.55 L17.6 11.45 Q18.2 12.95 17.6 14.05 M17.9 14.3 L18.05 14.4 19.35 16.45 19.25 16.5 19.0 16.6 15.4 15.7 17.9 14.3 M13.25 16.65 Q13.2 19.15 11.35 20.95 L10.8 21.45 9.75 21.55 Q9.2 19.45 7.45 18.2 L13.25 16.65" fill="#18601e" fill-rule="evenodd" stroke="none"/>
      <path d="M19.95 4.1 L20.45 4.75 20.35 4.75 Q21.25 7.35 19.95 9.55 L19.5 9.85 Q18.45 10.65 17.15 10.55 14.85 10.3 13.0 8.7 13.25 10.25 12.9 11.8 11.55 17.5 7.4 13.65 L5.25 11.1 5.6 10.45 5.7 10.4 6.1 10.75 10.35 14.4 10.85 14.15 11.3 12.9 Q12.3 10.25 12.35 7.3 L13.65 8.0 17.35 9.5 18.0 9.65 18.6 9.65 18.8 9.25 Q19.6 7.1 18.6 4.3 L19.95 4.1 M2.7 10.55 L2.95 11.0 Q1.1 15.1 -2.9 14.6 -3.4 14.8 -3.75 14.15 -5.1 11.65 -4.9 8.7 -7.15 10.45 -9.8 10.5 L-10.9 10.2 Q-7.8 9.6 -5.2 7.9 L-4.05 7.3 Q-4.15 10.75 -2.7 13.7 L-2.25 14.4 -1.6 14.15 0.8 12.05 2.4 10.4 2.7 10.55 M-10.45 4.3 Q-11.15 6.65 -10.55 9.1 L-10.3 9.7 -10.9 10.2 -11.6 9.75 -11.95 7.9 -11.95 4.8 -12.55 4.75 -11.85 4.1 -10.45 4.3" fill="#021e04" fill-rule="evenodd" stroke="none"/>
      <path d="M19.05 0.25 L19.35 -0.1 Q22.2 0.3 24.85 1.8 L25.0 2.2 21.25 0.7 22.65 1.85 22.1 2.5 Q20.45 3.8 18.6 4.3 19.6 7.1 18.8 9.25 L18.6 9.65 18.0 9.65 15.85 8.4 12.4 7.15 13.65 8.0 12.35 7.3 Q12.3 10.25 11.3 12.9 L10.85 14.15 Q8.8 12.4 7.3 10.2 L6.15 8.5 6.35 7.9 Q13.6 5.55 19.05 0.25 M6.1 10.75 L5.7 10.4 5.65 10.35 5.5 10.15 6.1 10.75 M2.4 10.4 L0.8 12.05 -1.6 14.15 -0.75 13.3 -1.65 12.8 -4.1 6.95 -4.85 7.4 -8.55 8.15 -10.3 9.7 -10.55 9.1 Q-11.15 6.65 -10.45 4.3 -13.5 3.7 -14.9 2.05 L-14.75 1.8 Q-12.8 1.1 -10.55 0.75 L-10.4 0.95 Q-4.7 5.1 1.8 7.9 L2.55 10.25 2.4 10.4 M-15.5 3.3 L-16.5 3.0 Q-16.9 2.65 -16.9 2.2 L-16.25 1.65 Q-14.0 0.1 -11.2 -0.1 L-16.9 2.2 -15.5 3.3" fill="#115019" fill-rule="evenodd" stroke="none"/>
      <path d="M17.8 14.2 L18.25 14.05 17.9 14.3 15.4 15.7 13.25 16.65 7.45 18.2 Q0.05 19.2 -6.5 15.85 L-9.45 14.5 -9.55 14.35 Q-2.6 16.75 4.55 16.55 L7.6 16.35 Q11.75 16.05 15.85 14.7 L17.8 14.2" fill="#0d4917" fill-rule="evenodd" stroke="none"/>
    </g>
  </defs>
</svg>
